!!!COM: the-decemberists
!!!OTL: the-hazards-of-love-1
!!!RNB: hooktheoryid: NLAgQMylgyO
**kern	**text
*clefG2	*
*k[f#c#]	*
*M4/4	*
=1	=1
4dd	D
8a	.
4a	.
4cc	.
[8b	.
=2	=2
8b]	.
4a	.
4.g	.
8f#	.
[8g	.
=3	=3
4g]	G
8d	.
[8fL	.
4f]J	F
8f	.
16f	.
[16f#	.
=4	=4
2f#]	D
2r	.
=5	=5
4dd	D
8a	.
4a	.
4cc	.
[8b	.
=6	=6
8b]	.
4a	.
16g	.
8.f#	.
4f#	.
[8g	.
=7	=7
4g]	G
8d	.
[8fL	.
4f]J	F
8f	.
16f	.
[16f#	.
=8	=8
2f#]	D
4r	.
16r	.
16d	.
8g	.
=9	=9
8g	G
4b	.
[8ccL	.
8cc]J	F
4b	.
16a	.
[16f#	.
=10	=10
2f#]	D
4r	.
16r	.
16d	.
[8g	.
=11	=11
8g]	G
4d	.
[8fL	.
8f]J	F
4f	.
16f	.
[16f#	.
=12	=12
2f#]	D
4r	.
16e	.
8.d	.
=13	=13
4r	F
[2f	.
8f]	.
[8e	.
=14	=14
8e]	G
4r	.
8b	.
16cc	F
8cc	.
16b	.
4a	D
=15	=15
1r	.
*-	*-